X:1
T:When Love Shines In
T:William James Kirkpatrick
T:When Love Shines In
T:Public Domain
T:Public Domain
T:Public Domain
C:William James Kirkpatrick
Z:Public Domain
%%score ( 1 2 ) ( 3 4 )
L:1/8
M:6/8
K:Eb
V:1 treble 
V:2 treble 
V:3 bass 
V:4 bass 
V:1
 E2 [EF] [EG]2 [FA] | [GB]2 [Ac] [GB][EG][DF] | E3 [EG]3 | [DF]6 | [DF]2 [DF] [DF]2 [EG] | %5
w: 1.~Je- sus comes with|to glad- den, when love|shines in,|ery|life that woe can|
w: 2.~How the world will|with beau- ty, when love|shines in,|the|heart re- joice in|
w: 3.~Dark- est sor- row|grow bright- er, when love|shines in,|the|heav- iest bur- den|
w: 4.~We may have un-|ing splen- dor, when love|shines in,|a|friend- ship true and|
 [FA]2 [FA] [FA][GB][Ac] | [Ac]3 [FA]3 | [EG]6 | [GB]2 [GB] (Bc)[Gd] | [Ge]2 [Ac] [GB]3 | %10
w: sad- den, when love shines|in. Love|will|teach us how * to|love will drive|
w: du- ty, when love shines|in. Tri-|als|may be sanc- * ti-|and the soul|
w: light- er, when love shines|in. ’Tis|the|glor- y that * will|light to show|
w: ten- der, when love shines|in. When|earth’s|vic- t’ries shall * be|and our life|
 [DA]2 [DA] (AB)[Dc] | [Ac]2 [FA] [EG]3 | E2 F G2 A | (B[Ge])[Fd] [Ge]2 [FA] | [EG]3 [DF]3 | %15
w: the gloom a- * way,|our dark- ness|in- to day, when|||
w: in peace a- * bide,|will all be|glor- i- fied, when|love * shines in, when|love shines|
w: us where to * go;|the heart shall|bless- ing know, when|||
w: in heav’n be- * gun,|will be no|need of sun, when|||
 E3- E2 ||"^Refrain" [GB] | [GB]3 [EG]3 | [GB]3- [GB]2 [GB] | [Ac]3 ([EA]2 [Ac]) | [GB]3- [GB]2 z | %21
w: ||||||
w: in, *|the|heart is|tuned * to|sing- ing, *|when *|
w: ||||||
w: ||||||
 [Ge]2 [Ge] (ed)[Gc] | [Ff]2 [Ff] [Ff][Fd][DB] | (F2 B) (A2 F) | (z [DF][EG] [F-A][EFG])[FA] | %25
w: ||||
w: love shines in, * When|shines in, when love shines|in, * Joy *|* * * * to|
w: ||||
w: ||||
 [EG]3 [GB]3 | [Ge]3- [Ge]2 [GB] | [Ac]3 ([EA]2 [Ac]) | [GB]3- [GB]2 | E2 F G2 A | %30
w: |||||
w: thers bring-|ing, * when|love shines *|in. *||
w: |||||
w: |||||
 B2 [Be] [Ae][Ac][FA] | [EG]3 [DF]3 | E6 |] %33
w: |||
w: |||
w: |||
w: |||
V:2
 E2 x4 | x6 | E3 x3 | x6 | x6 | x6 | x6 | x6 | x3 G2 x | x6 | x3 D2 x | x6 | E2 F G2 A | x6 | x6 | %15
w: power||Ev-||||||pray,||Turn||love shines in. *|||
w: grow||And||||||fied,||Life||love shines in. When|||
w: will||And||||||throw||O,||love shines in. *|||
w: fad-||And||||||won,||There||love shines in. *|||
 E3- E2 || x | x6 | x6 | x6 | x6 | x3 G2 x | x6 | d3 c3 | [FB-]3 B3 | x6 | x6 | x6 | x5 | %29
w: ||||||||||||||
w: How *||||||love||and peace|o- *|||||
w: ||||||||||||||
w: ||||||||||||||
 E2 F G2 A | B2 x4 | x6 | E6 |] %33
w: ||||
w: ||||
w: ||||
w: ||||
V:3
 [E,G,]2 [E,A,] [E,B,]2 [E,B,] | [E,E]2 [E,E] [E,E][E,B,][A,B,] | [G,B,]3 [E,B,]3 | [B,,B,]6 | %4
 [B,,B,]2 [B,,B,] [B,,B,]2 [B,,B,] | [B,,D]2 [B,,D] [B,,B,][B,,B,][B,,B,] | [B,,B,]3 (B,,C,D,) | %7
 [E,B,]6 | [E,E]2 [E,E] [E,B,]2 [E,B,] | [E,B,]2 [E,E] [E,E]3 | [F,B,]2 [F,B,] [B,,B,]2 [B,,B,] | %11
 [D,B,]2 [B,,B,] [E,B,]3 | E,2 F, G,2 A, | B,2 B, [E,B,]2 [A,C] | B,3 [B,,A,]3 | %15
 [E,G,]3- [E,G,]2 || E, | E,2 [E,E] [E,B,]2 [E,B,] | E,2 E, E2 E | E2- A, ([A,C]2 [A,E]) | %20
 [E,E]3- E,2 z | [C,E]2 [C,C] ([C,C][D,=B,])[E,C] | [D,B,]2 [D,B,] [D,B,][D,B,][G,B,] | %23
 (B,2 F) (F2 E) | [B,,D]3- [B,,D]2 B,, | E,2 [E,B,] [E,E]2 [E,E] | E,2 E, E,2 E | %27
 E2- [A,E] [A,C]2 [A,E] | [E,E]3- [E,E]2 | E,2 F, G,2 A, | B,2 [G,_D] [A,C][A,E][A,C] | %31
 (B,2 B,) (B,2 A,) | [E,G,]6 |] %33
V:4
 x6 | x6 | x6 | x6 | x6 | x6 | x3 B,3 | x6 | x6 | x6 | x6 | x6 | E,2 F, G,2 A, | B,2 B, x3 | %14
 B,3 x3 | x5 || E, | E,2 x4 | E3- E,2 x | x2 E x3 | x3 E2 x | x6 | x6 | F,3 F,3 | x5 B,, | E,2 x4 | %26
 B,3- B,2 x | x6 | x5 | E,2 F, G,2 A, | B,2 x4 | B,3 B,,3 | x6 |] %33

